X:5
T:The Hessian
S:Ashworth's Instructor, pp. 29-30
M:C|
L:1/8
K:G
%%MIDI program 72
%%MIDI transpose 8
c2|B2 e2 dedc|B2 e2 d3 c|B2 e2 dedc|B2 e2 d2||e2|dcBA GFGA|B2 e2 d3 e|
dcBA GFGA|B2 A2 G2::D2|GBAG FEFD|G2 A2 B3 G|.c.c (3(cBA) .B.B (3(BAG)|
d2 D2 G2::B2|.c.c (3(cdc) c3 A|.d.d (3(dcB) A3 B|.c.c (3(cBA) .B.B (3(BAG)|d2D2G2:|]

